app/assets/images/icons/socal-yt.svg

<svg width="120" height="120" viewBox="0 0 120 120" fill="none" xmlns="http://www.w3.org/2000/svg">
<path d="M113.873 31.8812C112.577 27.0616 108.777 23.2624 103.958 21.9647C95.1546 19.5559 59.94 19.5559 59.94 19.5559C59.94 19.5559 24.7268 19.5559 15.9233 21.8733C11.1971 23.1697 7.30453 27.0623 6.00815 31.8812C3.69141 40.684 3.69141 58.9398 3.69141 58.9398C3.69141 58.9398 3.69141 77.2877 6.00815 85.9984C7.30591 90.8173 11.1044 94.6165 15.924 95.9143C24.8195 98.3237 59.9414 98.3237 59.9414 98.3237C59.9414 98.3237 95.1546 98.3237 103.958 96.0063C108.778 94.7092 112.577 90.91 113.875 86.0911C116.191 77.2877 116.191 59.0325 116.191 59.0325C116.191 59.0325 116.283 40.684 113.873 31.8812V31.8812ZM48.7285 75.8052V42.0744L78.0112 58.9398L48.7285 75.8052Z" fill="black"/>
</svg>

<svg width="120" height="120" fill="none" xmlns="http://www.w3.org/2000/svg"><path d="M113.873 31.881a14.092 14.092 0 0 0-9.915-9.916c-8.803-2.41-44.018-2.41-44.018-2.41s-35.213 0-44.017 2.318c-4.726 1.297-8.618 5.19-9.915 10.008C3.691 40.684 3.691 58.94 3.691 58.94s0 18.348 2.317 27.058a14.096 14.096 0 0 0 9.916 9.916c8.896 2.41 44.017 2.41 44.017 2.41s35.214 0 44.017-2.318a14.095 14.095 0 0 0 9.917-9.915c2.316-8.803 2.316-27.058 2.316-27.058s.092-18.349-2.318-27.152zM48.728 75.805v-33.73L78.011 58.94 48.73 75.805z" fill="#000"/></svg>
